X: 164
T: Wu yang reqing de ge
%%abc-version 2.0
%%abcx-abcm2ps-target-version 5.9.1 (29 Sep 2008)
%%abc-creator hum2abc beta
%%abcx-conversion-date 2013/10/02 07:44:27
%%abc-edited-by Helmut Schaffrath
%%humdrum-veritas 974261592
%%humdrum-veritas-data 1750027632
%%continueall 1
%%barnumbers 0
L: 1/8
M: 2/4
K: F
G2A c/ d/ [I:setbarnb 1]| 
G G/ A/G2 | 
A c/ d/ G A | 
c4 | 
A A c A/ c/ | 
G G F F | 
G G/ A/ c A | 
G4 | 
d> f c A | 
G> A F F | 
G> A c A | 
G4 | 
A c/ d/ c A | 
G G/ A/ F F | 
G G A c/ d/ | 
G4 |]  



